src/svgs/hospital-sign.svg

<svg xmlns="http://www.w3.org/2000/svg" viewBox="0 0 24 24" width="512" height="512"><path d="M19 3H5a2 2 0 00-2 2v14a2 2 0 002 2h14a2 2 0 002-2V5a2 2 0 00-2-2zm-2 15h-2v-5H9v5H7V6h2v5h6V6h2z"/></svg>

<svg xmlns="http://www.w3.org/2000/svg" viewBox="0 0 24 24"><path d="M19,3H5A2,2,0,0,0,3,5V19a2,2,0,0,0,2,2H19a2,2,0,0,0,2-2V5A2,2,0,0,0,19,3ZM17,18H15V13H9v5H7V6H9v5h6V6h2Z"/></svg>
